dist/image/form/envelope.svg

<svg width="20" height="16" fill="none" xmlns="http://www.w3.org/2000/svg"><path d="M18 0H2C.9 0 .01.9.01 2L0 14c0 1.1.9 2 2 2h16c1.1 0 2-.9 2-2V2c0-1.1-.9-2-2-2zm0 4l-8 5-8-5V2l8 5 8-5v2z" fill="#FF8A00"/></svg>

<svg width="20" height="16" viewBox="0 0 20 16" fill="none" xmlns="http://www.w3.org/2000/svg">
<path d="M18 0H2C0.9 0 0.00999999 0.9 0.00999999 2L0 14C0 15.1 0.9 16 2 16H18C19.1 16 20 15.1 20 14V2C20 0.9 19.1 0 18 0ZM18 4L10 9L2 4V2L10 7L18 2V4Z" fill="#FF8A00"/>
</svg>
